X: 14088
T: Fretless Flute Song, The
R: waltz
M: 3/4
K: Eminor
|c2g2f2|f4e2|G2e3G|d6|
c2d2c2|B2BAB2|G2E2D2|E6|
c2g2f2|f4e2|G2e3G|d6|
c2g3c|B4B2|G2C2G2|E6:|:
g2a3g|f2-fe d2|f2a3g|f4e2|
f4d2|d4c2|e6|z2 (3gfe (3def|
g2b2a2|f3ed2|f2a3g|e3dc2|
B4A2|F3ED2|E6-|E6:|

